X: 80
T:The Merry Wife at Home
M:6/8
L:1/8
Q:130
S:Michael Raven (Hynde Horn)
R:Jig
A:Wales
Z:brian_martin12345@yahoo.com
K:G
G2FE2G|c2BA3|B2G FEF|G2G"  Fine"G3:||Bcd ded|Bcdd3|!
Bcd ded|g2d Bcd|e2cc2e|d2BB3|c2AB2G|"       D.C. al Fine"B2AA3||
